rospo-icon-theme-classic-common/32x32/apps/superproductivity.svg

<svg height="32" viewBox="0 0 32 32" width="32" xmlns="http://www.w3.org/2000/svg"><circle cx="16" cy="17" opacity=".2" r="14"/><circle cx="16" cy="16" fill="#7861e6" r="14"/><path d="m16 2a14 14 0 0 0 -14 14 14 14 0 0 0  .0214844.585938 14 14 0 0 1 13.9785156-13.585938 14 14 0 0 1 13.978516 13.414062 14 14 0 0 0  .021484-.414062 14 14 0 0 0 -14-14z" fill="#fff" opacity=".2"/><circle cx="16" cy="17" opacity=".2" r="10"/><circle cx="16" cy="16" fill="#acc0ff" r="10"/><path d="m12 14.000211 4 6 11-14.0000001" style="opacity:.2;fill:none;stroke:#000;stroke-width:6;stroke-linecap:round;stroke-linejoin:round"/><path d="m12 13 4 6 11-14" fill="none" stroke="#3f3f3f" stroke-linecap="round" stroke-linejoin="round" stroke-width="6"/></svg>

<svg xmlns="http://www.w3.org/2000/svg" width="32" height="32" version="1.1" viewBox="0 0 32 32">
 <circle cx="16" cy="17" r="14" style="opacity:0.2"/>
 <circle style="fill:#7861e6" cx="16" cy="16" r="14"/>
 <path style="fill:#ffffff;opacity:0.2" d="M 16 2 A 14 14 0 0 0 2 16 A 14 14 0 0 0 2.0214844 16.585938 A 14 14 0 0 1 16 3 A 14 14 0 0 1 29.978516 16.414062 A 14 14 0 0 0 30 16 A 14 14 0 0 0 16 2 z"/>
 <circle cx="16" cy="17" r="10" style="opacity:0.2"/>
 <circle style="fill:#acc0ff" cx="16" cy="16" r="10"/>
 <path d="m 12,14.000211 4,6 11,-14.0000001" style="opacity:0.2;fill:none;stroke:#000000;stroke-width:6;stroke-linecap:round;stroke-linejoin:round"/>
 <path style="fill:none;stroke:#3f3f3f;stroke-width:6;stroke-linecap:round;stroke-linejoin:round" d="M 12,13 16,19 27,5"/>
</svg>
